Icons/com_skype_android_raider.svg

<svg viewBox="0 0 48 48" xmlns:xlink="http://www.w3.org/1999/xlink">
 <defs>
  <linearGradient id="0">
   <stop stop-opacity="0"/>
   <stop offset="1"/>
  </linearGradient>
  <linearGradient xlink:href="#0" id="1" gradientUnits="userSpaceOnUse" gradientTransform="translate(4e-7,-48)" y1="47" x2="0" y2="1"/>
  <clipPath id="2">
   <g transform="translate(0,-1004.3622)">
    <rect rx="4" y="1005.36" x="1" height="46" width="46" fill="#1890d0"/>
   </g>
  </clipPath>
  <clipPath id="3">
   <g transform="translate(0,-1004.3622)">
    <rect rx="4" y="1005.36" x="1" height="46" width="46" fill="#1890d0"/>
   </g>
  </clipPath>
 </defs>
 <g>
  <g transform="translate(0,-1004.3622)">
   <path d="m 5,1006.3622 c -2.216,0 -4,1.784 -4,4 l 0,37.25 c 0,2.216 1.784,4 4,4 l 38,0 c 2.216,0 4,-1.784 4,-4 l 0,-37.25 c 0,-2.216 -1.784,-4 -4,-4 l -38,0 z m -4,41.5 0,0.5 c 0,2.216 1.784,4 4,4 l 38,0 c 2.216,0 4,-1.784 4,-4 l 0,-0.5 c 0,2.216 -1.784,4 -4,4 l -38,0 c -2.216,0 -4,-1.784 -4,-4 z" opacity="0.02"/>
   <path d="m 1,1047.6122 0,0.25 c 0,2.216 1.784,4 4,4 l 38,0 c 2.216,0 4,-1.784 4,-4 l 0,-0.25 c 0,2.216 -1.784,4 -4,4 l -38,0 c -2.216,0 -4,-1.784 -4,-4 z" opacity="0.05"/>
   <rect width="46" height="46" x="1" y="1005.61" rx="4" opacity="0.1"/>
  </g>
 </g>
 <g>
  <g transform="translate(0,-1004.3622)">
   <rect rx="4" y="1005.36" x="1" height="46" width="46" fill="#10b8f8"/>
  </g>
 </g>
 <g>
  <rect transform="scale(1,-1)" width="46" height="46" x="1" y="-46.998" rx="4" opacity="0.1" fill="url(#1)"/>
 </g>
 <g>
  <g clip-path="url(#2)">
   <g opacity="0.1">
    <g>
     <path d="M 18.054688 11 C 14.15625 11 11 14.15625 11 18.054688 C 11 19.257812 11.308594 20.425781 11.839844 21.417969 C 11.664062 22.253906 11.570312 23.109375 11.570312 24 C 11.570312 30.863281 17.136719 36.429688 24 36.429688 C 24.890625 36.429688 25.746094 36.335938 26.582031 36.160156 C 27.578125 36.695312 28.734375 37 29.945312 37 C 33.84375 37 37 33.84375 37 29.945312 C 37 28.734375 36.695312 27.578125 36.160156 26.582031 C 36.335938 25.746094 36.429688 24.890625 36.429688 24 C 36.429688 17.136719 30.863281 11.570312 24 11.570312 C 23.109375 11.570312 22.253906 11.664062 21.417969 11.839844 C 20.425781 11.308594 19.257812 11 18.054688 11 Z M 23.761719 16.164062 C 27.644531 16.164062 29.644531 18.207031 29.644531 19.40625 C 29.644531 20.605469 29.066406 20.789062 28.113281 20.789062 C 26.261719 20.789062 27.023438 18.566406 23.550781 18.566406 C 22.398438 18.566406 20.96875 19.085938 20.96875 20.425781 C 20.96875 21.503906 22.234375 21.894531 24.480469 22.4375 C 27.855469 23.34375 30.394531 24.242188 30.394531 27.332031 C 30.394531 30.335938 27.945312 31.835938 24.058594 31.835938 C 20.175781 31.835938 17.695312 29.523438 17.695312 28.324219 C 17.695312 27.121094 18.152344 26.824219 19.105469 26.824219 C 20.957031 26.824219 20.707031 29.34375 24.179688 29.34375 C 25.332031 29.34375 27.03125 28.824219 27.03125 27.484375 C 27.03125 26.40625 26.941406 26.039062 24.480469 25.382812 C 21.851562 25.023438 17.605469 24.171875 17.605469 20.90625 C 17.605469 17.90625 19.875 16.164062 23.761719 16.164062 Z M 23.761719 16.164062 "/>
    </g>
   </g>
  </g>
 </g>
 <g>
  <g clip-path="url(#3)">
   <g transform="translate(0,-1)">
    <g>
     <path d="M 18.054688 11 C 14.15625 11 11 14.15625 11 18.054688 C 11 19.257812 11.308594 20.425781 11.839844 21.417969 C 11.664062 22.253906 11.570312 23.109375 11.570312 24 C 11.570312 30.863281 17.136719 36.429688 24 36.429688 C 24.890625 36.429688 25.746094 36.335938 26.582031 36.160156 C 27.578125 36.695312 28.734375 37 29.945312 37 C 33.84375 37 37 33.84375 37 29.945312 C 37 28.734375 36.695312 27.578125 36.160156 26.582031 C 36.335938 25.746094 36.429688 24.890625 36.429688 24 C 36.429688 17.136719 30.863281 11.570312 24 11.570312 C 23.109375 11.570312 22.253906 11.664062 21.417969 11.839844 C 20.425781 11.308594 19.257812 11 18.054688 11 Z M 23.761719 16.164062 C 27.644531 16.164062 29.644531 18.207031 29.644531 19.40625 C 29.644531 20.605469 29.066406 20.789062 28.113281 20.789062 C 26.261719 20.789062 27.023438 18.566406 23.550781 18.566406 C 22.398438 18.566406 20.96875 19.085938 20.96875 20.425781 C 20.96875 21.503906 22.234375 21.894531 24.480469 22.4375 C 27.855469 23.34375 30.394531 24.242188 30.394531 27.332031 C 30.394531 30.335938 27.945312 31.835938 24.058594 31.835938 C 20.175781 31.835938 17.695312 29.523438 17.695312 28.324219 C 17.695312 27.121094 18.152344 26.824219 19.105469 26.824219 C 20.957031 26.824219 20.707031 29.34375 24.179688 29.34375 C 25.332031 29.34375 27.03125 28.824219 27.03125 27.484375 C 27.03125 26.40625 26.941406 26.039062 24.480469 25.382812 C 21.851562 25.023438 17.605469 24.171875 17.605469 20.90625 C 17.605469 17.90625 19.875 16.164062 23.761719 16.164062 Z M 23.761719 16.164062 " fill="#ffffff"/>
    </g>
   </g>
  </g>
 </g>
 <g>
  <g transform="translate(0,-1004.3622)">
   <path d="m 1,1043.3622 0,4 c 0,2.216 1.784,4 4,4 l 38,0 c 2.216,0 4,-1.784 4,-4 l 0,-4 c 0,2.216 -1.784,4 -4,4 l -38,0 c -2.216,0 -4,-1.784 -4,-4 z" opacity="0.1"/>
  </g>
 </g>
</svg>

<svg viewBox="0 0 48 48"><defs><linearGradient id="linearGradient3764" x1="1" x2="47" gradientUnits="userSpaceOnUse" gradientTransform="translate(-48.000001,0.00221467)"><stop stop-color="#07afed" stop-opacity="1"/><stop offset="1" stop-color="#10b8f8" stop-opacity="1"/></linearGradient><clipPath id="clipPath-033365763"><g transform="translate(0,-1004.3622)"><rect rx="4" y="1005.36" x="1" height="46" width="46" fill="#1890d0"/></g></clipPath><clipPath id="clipPath-046373728"><g transform="translate(0,-1004.3622)"><rect rx="4" y="1005.36" x="1" height="46" width="46" fill="#1890d0"/></g></clipPath></defs><g><path d="m 1 43 l 0 0.25 c 0 2.216 1.784 4 4 4 l 38 0 c 2.216 0 4 -1.784 4 -4 l 0 -0.25 c 0 2.216 -1.784 4 -4 4 l -38 0 c -2.216 0 -4 -1.784 -4 -4 z m 0 0.5 l 0 0.5 c 0 2.216 1.784 4 4 4 l 38 0 c 2.216 0 4 -1.784 4 -4 l 0 -0.5 c 0 2.216 -1.784 4 -4 4 l -38 0 c -2.216 0 -4 -1.784 -4 -4 z" opacity="0.02"/><path d="m 1 43.25 l 0 0.25 c 0 2.216 1.784 4 4 4 l 38 0 c 2.216 0 4 -1.784 4 -4 l 0 -0.25 c 0 2.216 -1.784 4 -4 4 l -38 0 c -2.216 0 -4 -1.784 -4 -4 z" opacity="0.05"/><path d="m 1 43 l 0 0.25 c 0 2.216 1.784 4 4 4 l 38 0 c 2.216 0 4 -1.784 4 -4 l 0 -0.25 c 0 2.216 -1.784 4 -4 4 l -38 0 c -2.216 0 -4 -1.784 -4 -4 z" opacity="0.1"/></g><g><rect width="46" height="46" x="-47" y="1" rx="4" transform="matrix(0,-1,1,0,0,0)" fill="url(#linearGradient3764)" fill-opacity="1"/></g><g><g clip-path="url(#clipPath-033365763)"><g opacity="0.1"><!-- color: #10b8f8 --><g><path d="m 18.05 11 c -3.898 0 -7.05 3.156 -7.05 7.05 c 0 1.203 0.309 2.371 0.84 3.363 c -0.176 0.836 -0.27 1.691 -0.27 2.582 c 0 6.863 5.566 12.43 12.43 12.43 c 0.891 0 1.746 -0.094 2.582 -0.27 c 0.996 0.535 2.152 0.84 3.363 0.84 c 3.898 0 7.05 -3.156 7.05 -7.05 c 0 -1.211 -0.305 -2.367 -0.84 -3.363 c 0.176 -0.836 0.27 -1.691 0.27 -2.582 c 0 -6.863 -5.566 -12.43 -12.43 -12.43 c -0.891 0 -1.746 0.094 -2.582 0.27 c -0.992 -0.531 -2.16 -0.84 -3.363 -0.84 m 5.707 5.164 c 3.883 0 5.883 2.043 5.883 3.242 c 0 1.199 -0.578 1.383 -1.531 1.383 c -1.852 0 -1.09 -2.223 -4.563 -2.223 c -1.152 0 -2.582 0.52 -2.582 1.859 c 0 1.078 1.266 1.469 3.512 2.01 c 3.375 0.906 5.914 1.805 5.914 4.895 c 0 3 -2.449 4.504 -6.336 4.504 c -3.883 0 -6.363 -2.313 -6.363 -3.512 c 0 -1.203 0.457 -1.5 1.41 -1.5 c 1.852 0 1.602 2.52 5.074 2.52 c 1.152 0 2.852 -0.52 2.852 -1.859 c 0 -1.078 -0.09 -1.445 -2.551 -2.102 c -2.629 -0.359 -6.875 -1.211 -6.875 -4.477 c 0 -3 2.27 -4.742 6.156 -4.742 m 0 0" fill="#000"/></g></g></g></g><g><g clip-path="url(#clipPath-046373728)"><g transform="translate(0,-1)"><!-- color: #10b8f8 --><g><path d="m 18.05 11 c -3.898 0 -7.05 3.156 -7.05 7.05 c 0 1.203 0.309 2.371 0.84 3.363 c -0.176 0.836 -0.27 1.691 -0.27 2.582 c 0 6.863 5.566 12.43 12.43 12.43 c 0.891 0 1.746 -0.094 2.582 -0.27 c 0.996 0.535 2.152 0.84 3.363 0.84 c 3.898 0 7.05 -3.156 7.05 -7.05 c 0 -1.211 -0.305 -2.367 -0.84 -3.363 c 0.176 -0.836 0.27 -1.691 0.27 -2.582 c 0 -6.863 -5.566 -12.43 -12.43 -12.43 c -0.891 0 -1.746 0.094 -2.582 0.27 c -0.992 -0.531 -2.16 -0.84 -3.363 -0.84 m 5.707 5.164 c 3.883 0 5.883 2.043 5.883 3.242 c 0 1.199 -0.578 1.383 -1.531 1.383 c -1.852 0 -1.09 -2.223 -4.563 -2.223 c -1.152 0 -2.582 0.52 -2.582 1.859 c 0 1.078 1.266 1.469 3.512 2.01 c 3.375 0.906 5.914 1.805 5.914 4.895 c 0 3 -2.449 4.504 -6.336 4.504 c -3.883 0 -6.363 -2.313 -6.363 -3.512 c 0 -1.203 0.457 -1.5 1.41 -1.5 c 1.852 0 1.602 2.52 5.074 2.52 c 1.152 0 2.852 -0.52 2.852 -1.859 c 0 -1.078 -0.09 -1.445 -2.551 -2.102 c -2.629 -0.359 -6.875 -1.211 -6.875 -4.477 c 0 -3 2.27 -4.742 6.156 -4.742 m 0 0" fill="#fff"/></g></g></g></g><g><g transform="translate(0,-1004.3622)"><path d="m 1 1043.36 0 4 c 0 2.216 1.784 4 4 4 l 38 0 c 2.216 0 4 -1.784 4 -4 l 0 -4 c 0 2.216 -1.784 4 -4 4 l -38 0 c -2.216 0 -4 -1.784 -4 -4 z" opacity="0.1"/></g></g></svg>
